!!!COM: Palestrina, Giovanni Perluigi da
!!!OPR: Missa Aspice Domine
!!!OTL: Benedictus
**kern	**kern	**kern	**kern
*Ibass	*Itenor	*Icalto	*Icant
!Bassus	!Tenor	!Altus	!Cantus
*clefF4	*clefGv2	*clefG2	*clefG2
*k[]	*k[]	*k[]	*k[]
*D:dor	*D:dor	*D:dor	*D:dor
*M4/2	*M4/2	*M4/2	*M4/2
=1	=1	=1	=1
0r	0r	0f	0r
=2	=2	=2	=2
0r	0r	1g	1r
.	.	1a	[1cc
=3	=3	=3	=3
0r	0r	2a	1cc]
.	.	2a	.
.	.	1b-	1dd
=4	=4	=4	=4
0r	0r	2.a	1ee
.	.	8g	.
.	.	8f	.
.	.	2g	2ee
.	.	2a	2ee
=5	=5	=5	=5
0r	0r	4d	1ff
.	.	4e	.
.	.	4f	.
.	.	4g	.
.	.	4a	2ee
.	.	4g	.
.	.	4a	4cc
.	.	4b	4dd
=6	=6	=6	=6
0r	0c	2.cc	4ee
.	.	.	4ff
.	.	.	2.gg
.	.	8b	.
.	.	8a	.
.	.	2g	.
.	.	.	4ff
.	.	2a	2ee
=7	=7	=7	=7
0r	1d	4b	2.dd
.	.	4a	.
.	.	1a	.
.	.	.	4cc
.	1e	.	[1b
.	.	4g	.
.	.	4f#	.
=8	=8	=8	=8
1r	2e	1g#	1b]
.	2e	.	.
[1F	[1f	[1a	2a
.	.	.	2cc
=9	=9	=9	=9
1F]	2f]	1a]	2dd
.	2e	.	1cc
1G	2d	1r	.
.	2g	.	2b
=10	=10	=10	=10
1A	2e	0c	4a
.	.	.	4g
.	2f	.	4a
.	.	.	4b
2A	2e	.	4cc
.	.	.	4b
2A	[2f	.	4a
.	.	.	4g
=11	=11	=11	=11
1B-	2f]	1d	2f
.	4e	.	2g
.	4d	.	.
2.A	2.c	1e	1a
8G	8B	.	.
8F#	8A	.	.
=12	=12	=12	=12
2G	2B	2e	0r
2A	2c#	2e	.
4D	1d	1f	.
4E	.	.	.
4F	.	.	.
4G	.	.	.
=13	=13	=13	=13
2.A	2.c	0e	0cc
4G	4B	.	.
4A	1A	.	.
4B	.	.	.
[2c	.	.	.
=14	=14	=14	=14
2c]	1G	0g	1dd
2B	.	.	.
2.c	1r	.	1ee
4B	.	.	.
=15	=15	=15	=15
4A	1c	1.a	2ee
4G	.	.	.
2A	.	.	2ee
1D	1d	.	1ff
.	.	[2b	.
=16	=16	=16	=16
0r	1e	2b]	2ee
.	.	2b	2.gg
.	2e	2cc	.
.	.	.	4ff
.	2e	[2b	2ee
=17	=17	=17	=17
0r	1f	4b]	4dd
.	.	4a	4cc
.	.	2.a	4cc
.	.	.	8b
.	.	.	8a
.	1e	.	1b
.	.	8g	.
.	.	8f#	.
.	.	2g#	.
=18	=18	=18	=18
0F	2r	0a	1a
.	1c	.	.
.	.	.	2r
.	[2d	.	2a
=19	=19	=19	=19
1G	2d]	2r	1b
.	1e	2g	.
1A	.	2c	2cc
.	2e	2cc	2a
=20	=20	=20	=20
1.A	1e	2a	2.cc
.	.	2.cc	.
.	.	.	4dd
.	1c	.	2ee
.	.	4b	.
2A	.	[2a	[2ff
=21	=21	=21	=21
1B-	1d	4a]	4ff]
.	.	8g	4ee
.	.	8f	.
.	.	2g	1dd
1A	1e	1a	.
.	.	.	2cc#
=22	=22	=22	=22
2r	2d	1a	0dd
2d	2f	.	.
2d	2f	2r	.
2d	2f	2a	.
=23	=23	=23	=23
0c	0e	2a	0r
.	.	2a	.
.	.	[1g	.
=24	=24	=24	=24
1e	1.g	1g]	0r
[1d	.	1b-	.
.	4f	.	.
.	4e	.	.
=25	=25	=25	=25
2d]	2f	1a	0r
2A	1e	.	.
2c	.	2g	.
2d	[2d	2f	.
=26	=26	=26	=26
2.A	2d]	0e	2r
.	4c	.	2ee
4G	4B	.	.
4A	4c	.	2ee
4B	4d	.	.
2c	4e	.	2ee
.	4f	.	.
=27	=27	=27	=27
0G	2g	2r	0dd
.	2g	2b	.
.	2g	2b	.
.	2g	2b	.
=28	=28	=28	=28
0r	2f	2a	1ff
.	2.a	1cc	.
.	.	.	1ee
.	4g	.	.
.	4e	4b	.
.	4f	4a	.
=29	=29	=29	=29
0r	2g	2b	2dd
.	2a	1a	2cc
.	1e	.	2b
.	.	2g#	2b
=30	=30	=30	=30
2r	1A	2.a	2a
2A	.	.	2cc
.	.	8g	.
.	.	8f	.
2A	2r	1e	2cc
2A	2e	.	2cc
=31	=31	=31	=31
0G	2e	2r	0b
.	2e	2g	.
.	[1d	2g	.
.	.	2g	.
=32	=32	=32	=32
1B-	1d]	1f	1dd
[1A	1f	1a	[1cc
=33	=33	=33	=33
2A]	1e	2a	2cc]
2E	.	2.g	4b
.	.	.	4a
2G	2d	.	2b
.	.	4f	.
2A	2c	4e	[2a
.	.	4d	.
=34	=34	=34	=34
1E	2B	2.e	2a]
.	2B	.	2g#
.	.	4d	.
2.F	2A	4c	[1a
.	.	4B	.
.	[2f	2A	.
4E	.	.	.
=35	=35	=35	=35
4D	4f]	1f	0a]
4E	4e	.	.
4F	1d	.	.
4G	.	.	.
1A	.	1e	.
.	2c#	.	.
=36	=36	=36	=36
2r	1d	2.f	2r
2d	.	.	2ff
.	.	4g	.
2d	2r	1a	2ff
2d	2a	.	2ff
=37	=37	=37	=37
1c	2a	2r	1ee
.	2a	2cc	.
1e	1g	2b	1gg
.	.	2g	.
=38	=38	=38	=38
1.d	2r	2a	1.ff
.	4d	4f	.
.	4e	4g	.
.	4f	4a	.
.	4g	4b	.
2A	2a	[2cc	4ee
.	.	.	4dd
=39	=39	=39	=39
2c	2g	2cc]	2ee
2d	2f	2a	1dd
1A	2e	1a	.
.	2e	.	2cc#
=40	=40	=40	=40
0D	[0d	2r	2dd
.	.	2a	2.ff
.	.	2a	.
.	.	.	4ee
.	.	2a	4dd
.	.	.	4cc
=41	=41	=41	=41
1.G	1d_	2g	4b-
.	.	.	4a
.	.	1b-	4g
.	.	.	4f#
.	1d_	.	2g
2F#	.	2a	2a
=42	=42	=42	=42
1G	0d]	1g	1b-
1G	.	1g	1b-
=43	=43	=43	=43
[0D	[0d	[0f#	[0a
=44	=44	=44	=44
0D]	0d]	0f#]	0a]
==	==	==	==
*-	*-	*-	*-
!!!CDT: 1525/^1526/-1594/2/2
!!!OCY: Italia
!!!AGN: Mass (Parody)
!!!AST: renaissance, vocal
!!!ASW: Motet (Jacquet)
!!!PWK: Masses, Book 2
!!!RNB: Cadence finals: A
!!!YOR: Le Opere Complete, v. 4, p. 91
!!!YOO: Rome, Italy: Fratelli Scalera
!!!END: 1992//
!!!EED: John Miller
!!!YEC: Copyright 2000, John Miller
!!!YEN: United States of America
!!!YEM: Rights to all derivative electronic formats reserved.
!!!YEM: Refer to licensing agreement for further details.
!!!YEM: This file must be accompanied by the licensing agreement.
!!!YEM: A copy of the licensing agreement may be found at http://www.music-cog.ohio-state.edu/HumdrumDatabases/Palestrina/license.txt
!!!EMD: converted to Humdrum by Bret Aarden
